src/components/logo/logo.svg

<svg width="185px" height="34px" viewBox="0 0 185 34" version="1.1" xmlns="http://www.w3.org/2000/svg" xmlns:xlink="http://www.w3.org/1999/xlink">
    <g id="main-page" stroke="none" stroke-width="1" fill="none" fill-rule="evenodd">
        <g id="Screen-1920" transform="translate(-40.000000, -40.000000)">
            <g id="first-screen" transform="translate(40.000000, 0.000000)">
                <g id="header" transform="translate(0.000000, 40.000000)">
                    <g id="logo-outline">
                        <rect id="green-bg" fill="#32846B" fill-rule="nonzero" x="0" y="0" width="61" height="34"></rect>
                        <path d="M26.48,23.16 L26.48,27 L11.12,27 L11.12,23.992 L19.888,13.624 L11.344,13.624 L11.344,9.784 L26.192,9.784 L26.192,12.792 L17.424,23.16 L26.48,23.16 Z M46.32,18.456 C46.32,18.5200003 46.2880003,18.9679958 46.224,19.8 L33.2,19.8 C33.4346678,20.866672 33.989329,21.7093302 34.864,22.328 C35.738671,22.9466698 36.8266602,23.256 38.128,23.256 C39.0240045,23.256 39.8186632,23.122668 40.512,22.856 C41.2053368,22.589332 41.8506637,22.1680029 42.448,21.592 L45.104,24.472 C43.4826586,26.3280093 41.1146822,27.256 38,27.256 C36.058657,27.256 34.3413408,26.8773371 32.848,26.12 C31.3546592,25.3626629 30.2026707,24.3120067 29.392,22.968 C28.5813293,21.6239933 28.176,20.0986752 28.176,18.392 C28.176,16.7066582 28.575996,15.1866734 29.376,13.832 C30.176004,12.4773266 31.2746597,11.4213371 32.672,10.664 C34.0693403,9.90666288 35.6319914,9.528 37.36,9.528 C39.0453418,9.528 40.5706598,9.89066304 41.936,10.616 C43.3013402,11.341337 44.3733294,12.3813266 45.152,13.736 C45.9306706,15.0906734 46.32,16.663991 46.32,18.456 Z M37.392,13.304 C36.2613277,13.304 35.3120038,13.6239968 34.544,14.264 C33.7759962,14.9040032 33.3066675,15.7786611 33.136,16.888 L41.616,16.888 C41.4453325,15.7999946 40.9760038,14.9306699 40.208,14.28 C39.4399962,13.6293301 38.5013389,13.304 37.392,13.304 Z M49.648,3.256 L54.64,3.256 L54.64,27 L49.648,27 L49.648,3.256 Z" id="zel" fill="#EAEAEC"></path>
                        <path d="M73.096,27.256 C71.6666595,27.256 70.2693402,27.0800018 68.904,26.728 C67.5386598,26.3759982 66.4506707,25.933336 65.64,25.4 L67.304,21.816 C68.0720038,22.3066691 68.9999946,22.7066651 70.088,23.016 C71.1760054,23.3253349 72.2426614,23.48 73.288,23.48 C75.4000106,23.48 76.456,22.9573386 76.456,21.912 C76.456,21.4213309 76.1680029,21.0693344 75.592,20.856 C75.0159971,20.6426656 74.1306726,20.4613341 72.936,20.312 C71.527993,20.0986656 70.3653379,19.8533347 69.448,19.576 C68.5306621,19.2986653 67.7360034,18.8080035 67.064,18.104 C66.3919966,17.3999965 66.056,16.3973398 66.056,15.096 C66.056,14.0079946 66.3706635,13.0426709 67,12.2 C67.6293365,11.3573291 68.5466606,10.7013357 69.752,10.232 C70.9573394,9.76266432 72.3813251,9.528 74.024,9.528 C75.2400061,9.528 76.4506606,9.661332 77.656,9.928 C78.8613394,10.194668 79.8586627,10.5626643 80.648,11.032 L78.984,14.584 C77.4693258,13.7306624 75.816009,13.304 74.024,13.304 C72.957328,13.304 72.157336,13.4533318 71.624,13.752 C71.090664,14.0506682 70.824,14.4346643 70.824,14.904 C70.824,15.437336 71.1119971,15.8106656 71.688,16.024 C72.2640029,16.2373344 73.181327,16.439999 74.44,16.632 C75.848007,16.8666678 76.9999955,17.117332 77.896,17.384 C78.7920045,17.650668 79.5706634,18.1359965 80.232,18.84 C80.8933366,19.5440035 81.224,20.525327 81.224,21.784 C81.224,22.850672 80.9040032,23.7999958 80.264,24.632 C79.6239968,25.4640042 78.6906728,26.109331 77.464,26.568 C76.2373272,27.026669 74.7813418,27.256 73.096,27.256 Z M106.344,9.528 C108.498677,9.528 110.21066,10.1626603 111.48,11.432 C112.74934,12.7013397 113.384,14.6053206 113.384,17.144 L113.384,27 L108.392,27 L108.392,17.912 C108.392,16.5466598 108.109336,15.5280034 107.544,14.856 C106.978664,14.1839966 106.173339,13.848 105.128,13.848 C103.954661,13.848 103.02667,14.2266629 102.344,14.984 C101.66133,15.7413371 101.32,16.8666592 101.32,18.36 L101.32,27 L96.328,27 L96.328,17.912 C96.328,15.2026531 95.2400109,13.848 93.064,13.848 C91.9119942,13.848 90.9946701,14.2266629 90.312,14.984 C89.6293299,15.7413371 89.288,16.8666592 89.288,18.36 L89.288,27 L84.296,27 L84.296,9.784 L89.064,9.784 L89.064,11.768 C89.7040032,11.042663 90.4879954,10.4880019 91.416,10.104 C92.3440046,9.71999808 93.3626611,9.528 94.472,9.528 C95.6880061,9.528 96.7866618,9.7679976 97.768,10.248 C98.7493382,10.7280024 99.5386637,11.4266621 100.136,12.344 C100.840004,11.4479955 101.730661,10.7546691 102.808,10.264 C103.885339,9.77333088 105.063994,9.528 106.344,9.528 Z M126.248,27.256 C124.434658,27.256 122.808007,26.8773371 121.368,26.12 C119.927993,25.3626629 118.802671,24.3120067 117.992,22.968 C117.181329,21.6239933 116.776,20.0986752 116.776,18.392 C116.776,16.6853248 117.181329,15.1600067 117.992,13.816 C118.802671,12.4719933 119.927993,11.4213371 121.368,10.664 C122.808007,9.90666288 124.434658,9.528 126.248,9.528 C128.061342,9.528 129.68266,9.90666288 131.112,10.664 C132.54134,11.4213371 133.661329,12.4719933 134.472,13.816 C135.282671,15.1600067 135.688,16.6853248 135.688,18.392 C135.688,20.0986752 135.282671,21.6239933 134.472,22.968 C133.661329,24.3120067 132.54134,25.3626629 131.112,26.12 C129.68266,26.8773371 128.061342,27.256 126.248,27.256 Z M126.248,23.16 C127.528006,23.16 128.578663,22.7280043 129.4,21.864 C130.221337,20.9999957 130.632,19.8426739 130.632,18.392 C130.632,16.9413261 130.221337,15.7840043 129.4,14.92 C128.578663,14.0559957 127.528006,13.624 126.248,13.624 C124.967994,13.624 123.912004,14.0559957 123.08,14.92 C122.247996,15.7840043 121.832,16.9413261 121.832,18.392 C121.832,19.8426739 122.247996,20.9999957 123.08,21.864 C123.912004,22.7280043 124.967994,23.16 126.248,23.16 Z M146.408,20.248 L144.008,22.616 L144.008,27 L139.016,27 L139.016,3.256 L144.008,3.256 L144.008,16.696 L151.304,9.784 L157.256,9.784 L150.088,17.08 L157.896,27 L151.848,27 L146.408,20.248 Z M176.264,18.456 C176.264,18.5200003 176.232,18.9679958 176.168,19.8 L163.144,19.8 C163.378668,20.866672 163.933329,21.7093302 164.808,22.328 C165.682671,22.9466698 166.77066,23.256 168.072,23.256 C168.968004,23.256 169.762663,23.122668 170.456,22.856 C171.149337,22.589332 171.794664,22.1680029 172.392,21.592 L175.048,24.472 C173.426659,26.3280093 171.058682,27.256 167.944,27.256 C166.002657,27.256 164.285341,26.8773371 162.792,26.12 C161.298659,25.3626629 160.146671,24.3120067 159.336,22.968 C158.525329,21.6239933 158.12,20.0986752 158.12,18.392 C158.12,16.7066582 158.519996,15.1866734 159.32,13.832 C160.120004,12.4773266 161.21866,11.4213371 162.616,10.664 C164.01334,9.90666288 165.575991,9.528 167.304,9.528 C168.989342,9.528 170.51466,9.89066304 171.88,10.616 C173.24534,11.341337 174.317329,12.3813266 175.096,13.736 C175.874671,15.0906734 176.264,16.663991 176.264,18.456 Z M167.336,13.304 C166.205328,13.304 165.256004,13.6239968 164.488,14.264 C163.719996,14.9040032 163.250668,15.7786611 163.08,16.888 L171.56,16.888 C171.389332,15.7999946 170.920004,14.9306699 170.152,14.28 C169.383996,13.6293301 168.445339,13.304 167.336,13.304 Z M181.48,27.256 C180.605329,27.256 179.869336,26.9573363 179.272,26.36 C178.674664,25.7626637 178.376,25.0160045 178.376,24.12 C178.376,23.2026621 178.674664,22.4613362 179.272,21.896 C179.869336,21.3306638 180.605329,21.048 181.48,21.048 C182.354671,21.048 183.090664,21.3306638 183.688,21.896 C184.285336,22.4613362 184.584,23.2026621 184.584,24.12 C184.584,25.0160045 184.285336,25.7626637 183.688,26.36 C183.090664,26.9573363 182.354671,27.256 181.48,27.256 Z" id="smoke." fill="#545B6B"></path>
                    </g>
                </g>
            </g>
        </g>
    </g>
</svg>

<svg width="185" height="34" viewBox="0 0 185 34" xmlns="http://www.w3.org/2000/svg"><g fill="none" fill-rule="evenodd"><path fill="#32846B" fill-rule="nonzero" d="M0 0h61v34H0z"/><path d="M26.48 23.16V27H11.12v-3.008l8.768-10.368h-8.544v-3.84h14.848v3.008L17.424 23.16h9.056zm19.84-4.704c0 .064-.032.512-.096 1.344H33.2c.235 1.067.79 1.91 1.664 2.528.875.619 1.963.928 3.264.928.896 0 1.69-.133 2.384-.4.693-.267 1.339-.688 1.936-1.264l2.656 2.88c-1.621 1.856-3.99 2.784-7.104 2.784-1.941 0-3.659-.379-5.152-1.136-1.493-.757-2.645-1.808-3.456-3.152-.81-1.344-1.216-2.87-1.216-4.576 0-1.685.4-3.205 1.2-4.56a8.407 8.407 0 0 1 3.296-3.168c1.397-.757 2.96-1.136 4.688-1.136 1.685 0 3.21.363 4.576 1.088a7.941 7.941 0 0 1 3.216 3.12c.779 1.355 1.168 2.928 1.168 4.72zm-8.928-5.152c-1.13 0-2.08.32-2.848.96-.768.64-1.237 1.515-1.408 2.624h8.48c-.17-1.088-.64-1.957-1.408-2.608-.768-.65-1.707-.976-2.816-.976zM49.648 3.256h4.992V27h-4.992V3.256z" fill="#EAEAEC"/><path d="M73.096 27.256c-1.43 0-2.827-.176-4.192-.528-1.365-.352-2.453-.795-3.264-1.328l1.664-3.584c.768.49 1.696.89 2.784 1.2 1.088.31 2.155.464 3.2.464 2.112 0 3.168-.523 3.168-1.568 0-.49-.288-.843-.864-1.056-.576-.213-1.461-.395-2.656-.544-1.408-.213-2.57-.459-3.488-.736a5.411 5.411 0 0 1-2.384-1.472c-.672-.704-1.008-1.707-1.008-3.008 0-1.088.315-2.053.944-2.896.63-.843 1.547-1.499 2.752-1.968 1.205-.47 2.63-.704 4.272-.704 1.216 0 2.427.133 3.632.4s2.203.635 2.992 1.104l-1.664 3.552c-1.515-.853-3.168-1.28-4.96-1.28-1.067 0-1.867.15-2.4.448-.533.299-.8.683-.8 1.152 0 .533.288.907.864 1.12.576.213 1.493.416 2.752.608 1.408.235 2.56.485 3.456.752a5.192 5.192 0 0 1 2.336 1.456c.661.704.992 1.685.992 2.944 0 1.067-.32 2.016-.96 2.848-.64.832-1.573 1.477-2.8 1.936-1.227.459-2.683.688-4.368.688zm33.248-17.728c2.155 0 3.867.635 5.136 1.904 1.27 1.27 1.904 3.173 1.904 5.712V27h-4.992v-9.088c0-1.365-.283-2.384-.848-3.056-.565-.672-1.37-1.008-2.416-1.008-1.173 0-2.101.379-2.784 1.136-.683.757-1.024 1.883-1.024 3.376V27h-4.992v-9.088c0-2.71-1.088-4.064-3.264-4.064-1.152 0-2.07.379-2.752 1.136-.683.757-1.024 1.883-1.024 3.376V27h-4.992V9.784h4.768v1.984a6.3 6.3 0 0 1 2.352-1.664c.928-.384 1.947-.576 3.056-.576 1.216 0 2.315.24 3.296.72a5.837 5.837 0 0 1 2.368 2.096 7.062 7.062 0 0 1 2.672-2.08c1.077-.49 2.256-.736 3.536-.736zm19.904 17.728c-1.813 0-3.44-.379-4.88-1.136-1.44-.757-2.565-1.808-3.376-3.152-.81-1.344-1.216-2.87-1.216-4.576 0-1.707.405-3.232 1.216-4.576.81-1.344 1.936-2.395 3.376-3.152 1.44-.757 3.067-1.136 4.88-1.136 1.813 0 3.435.379 4.864 1.136 1.43.757 2.55 1.808 3.36 3.152s1.216 2.87 1.216 4.576c0 1.707-.405 3.232-1.216 4.576-.81 1.344-1.93 2.395-3.36 3.152-1.43.757-3.05 1.136-4.864 1.136zm0-4.096c1.28 0 2.33-.432 3.152-1.296.821-.864 1.232-2.021 1.232-3.472 0-1.45-.41-2.608-1.232-3.472-.821-.864-1.872-1.296-3.152-1.296s-2.336.432-3.168 1.296c-.832.864-1.248 2.021-1.248 3.472 0 1.45.416 2.608 1.248 3.472.832.864 1.888 1.296 3.168 1.296zm20.16-2.912l-2.4 2.368V27h-4.992V3.256h4.992v13.44l7.296-6.912h5.952l-7.168 7.296 7.808 9.92h-6.048l-5.44-6.752zm29.856-1.792c0 .064-.032.512-.096 1.344h-13.024c.235 1.067.79 1.91 1.664 2.528.875.619 1.963.928 3.264.928.896 0 1.69-.133 2.384-.4.693-.267 1.339-.688 1.936-1.264l2.656 2.88c-1.621 1.856-3.99 2.784-7.104 2.784-1.941 0-3.659-.379-5.152-1.136-1.493-.757-2.645-1.808-3.456-3.152-.81-1.344-1.216-2.87-1.216-4.576 0-1.685.4-3.205 1.2-4.56a8.407 8.407 0 0 1 3.296-3.168c1.397-.757 2.96-1.136 4.688-1.136 1.685 0 3.21.363 4.576 1.088a7.941 7.941 0 0 1 3.216 3.12c.779 1.355 1.168 2.928 1.168 4.72zm-8.928-5.152c-1.13 0-2.08.32-2.848.96-.768.64-1.237 1.515-1.408 2.624h8.48c-.17-1.088-.64-1.957-1.408-2.608-.768-.65-1.707-.976-2.816-.976zm14.144 13.952c-.875 0-1.61-.299-2.208-.896-.597-.597-.896-1.344-.896-2.24 0-.917.299-1.659.896-2.224.597-.565 1.333-.848 2.208-.848.875 0 1.61.283 2.208.848.597.565.896 1.307.896 2.224 0 .896-.299 1.643-.896 2.24-.597.597-1.333.896-2.208.896z" fill="#545B6B"/></g></svg>
